X:1
T:Ung viellart amoureux
T:Clément Janequin
T:Source : Tiers livre contenant 21 chansons à 4, eslevées de plusieurs livres---Paris--- P.Attaignant---1536. Editor : André Vierendeels (20/03/18) Notes : Original clefs : G2, C2, C3, F3 Original note values have been halved Editorial accidentals above the staff
T:Ung viellart amoureux
T:©
T:©
T:©
C:Clément Janequin
Z:©
%%score [ 1 2 [ 3 4 ] ]
L:1/8
Q:1/4=120
M:2/2
K:F
V:1 treble nm="Soprano" snm="S"
V:2 treble nm="Alto" snm="A"
V:3 treble-8 nm="Tenor 1" snm="T 1"
V:4 treble-8 nm="Tenor 2" snm="T 2"
V:1
 z4 z2 G2 | B3 c de f2 | e2 d4 c2 | d2 d2 d2 d2 | f3 e dcBA | GF B4 A2 | B4 z2 G2 | B3 c de f2 | %8
w: Ung|viel- lart _ _ _|a- * mou-|reux, est sou- vent|mal- * * * * *|* * * con-|tent, plu-|sieurs _ _ _ _|
 e2 d4 c2 | d2 d2 d2 d2 | f3 e dcBA | GF B4 A2 | B2 B2 B2 B2 | c2 c2 d4 | B2 B2 f2 f2 | %15
w: foys est ia-|leur, dont on sen|va _ _ _ _ _|_ _ mo- *|quant, di- sant que|vous en- sem-|ble de ce vieulx|
 f2 f2 d3 c/B/ | A4 z4 | z2 B2 B2 B2 | c2 c2 d4 | B4 z4 | z4 z2 d2- | d2 c2 B2 A2- | AG G4 F2 | %23
w: ras- so- * * *|te,|à qui la|tes- te tram-|ble,|et|_ veult es- tre-|* * mon- *|
 G2 B2 B2 B2 | c2 c2 d4 | B2 B2 A2 G2 | F3 E D4 | z2 c2 B2 A2- | AG G4 F2 | G8 |] %30
w: té, à qui la|tes- te tram-|ble et veult es-|tre mon- té,|et veult es-|* * stre mon-|té.|
V:2
 z4 z2 G2 | G3 A B2 B2 | c2 G2 A2 A2 | F3 G A2 B2 | A2 A2 B2 F2 | G2 E2 F3 E | DCB,A, G,2 G2 | %7
w: Ung|viel- art a- mou-|reux est sou- vent|mal- con- tent, est|sou- vent mal _|_ con- tent, _|_ _ _ _ _ plu-|
 G3 A B2 B2 | c2 G2 A2 A2 | F3 G A2 B2 | A3 A B2 F2 | G2 E2 F2 F2 | F2 F2 G2 G2 | A4 F2 F2 | %14
w: sieurs _ _ foys|est ia- leur dont|on sen va mo-|quant, dont on sen|va mo- quant, di-|sant que vous en-|sem- ble, que|
 G2 G2 A4 | F4 z4 | z4 z2 F2 | F2 F2 G2 G2 | A4 F2 F2 | G2 G2 A4 | F2 F2 B2 B2 | A2 G2 F2 FF | %22
w: vous en- sem-|ble,|à|qui la tes- te|tram- ble, la|tes- te tram-|ble, à qui la|tes- te tram- ble, et|
 D2 E2 D2 D2 | D3 D G2 G2 | F2 E2 D4 | D4 z4 | z2 A2 B2 B2 | A2 G2 F2 FF | D2 E2 D2 D2 | D8 |] %30
w: veult es- tre mon-|té, à qui la|tes- te tram-|ble,|à qui la|tes- te tram- ble, et|veult es- tre mon-|té.|
V:3
 z2 G2 B3 c | dG g4 f2 | gfed e2 e2 | d4 z2 d2 | d2 d2 fedc | edcB c2 c2 | B2 F2 B3 c | dG g4 f2 | %8
w: Ung viel- lart|a- * * *|* * * * * mou-|reux est|sou- vent mal _ _ _|_ _ _ _ _ con-|tent, plu- sieurs _|_ _ foys est|
 gfed e2 e2 | d4 z2 d2 | d2 d2 fedc | edcB c2 c2 | B8 | z4 z2 B2 | B2 B2 c2 c2 | d4 B2 B2 | %16
w: _ _ _ _ _ ia-|leur dont|on sen va _ _ _|_ _ _ _ _ mo-|quant,|di-|sant que vous en-|sem- ble de|
 f2 f2 f2 f2 | d3 c B3 A/G/ | F2 z2 z2 B2 | B2 B2 c2 c2 | d2 dd B2 B2 | c2 c2 d2 dc | B2 c2 A2 A2 | %23
w: ce vieulx ras- so-||te, à|qui la tes- te|tram- ble, à qui la|tes- te tram- ble, et|veult es- tre mon-|
 G8 | z4 z2 B2 | B2 B2 c2 c2 | d2 dd B2 B2 | c2 c2 d2 dc | B2 c2 A2 A2 | G8 |] %30
w: té,|à|qui la tes- te|tram- ble, à qui la|tes- te tram- ble et|veult es- tre mon-|té|
V:4
 z4 z2 G2 | G6 d2 | c2 B2 A2 A2 | B2 B2 F2 G2 | D4 B4 | _E2 G2 F2 F2 | B,4 z2 G2 | G6 d2 | %8
w: Ung|viel- lart|a- mou- reux est|sou- vent mal con-|tent, est|sou- vent mal- con-|tent, plu-|sieurs foys|
 c2 B2 A2 A2 | B2 B2 F2 G2 | D4 B4 | _E2 G2 F2 F2 | B,4 z4 | z2 F2 B3 A | G2 G2 F4 | D2 D2 G2 G2 | %16
w: est ia- leur, dont|on sen va mo-|quant, dont|on sen va mo-|quant,|di- sant que|vous en sem-|ble de ce vieulx|
 F2 F2 D2 DD | B,4 z4 | z2 F2 B3 A | G2 G2 F4 | D2 D2 G2 G2 | F2 E2 D2 DF | G2 C2 D2 D2 | G8 | %24
w: ras- so- te, ras- so-|te,|à qui la|tes- te tram-|ble, à qui la|tes- te tram- ble, et|veult es- tre mon-|té,|
 z4 z2 G2 |"^#" G2 G2 F2 E2 | D2 DD G2 G2 | F2 E2 D2 DF | G2 C2 D2 D2 | G8 |] %30
w: à|qui la tes- te|tram- ble, à qui la|tes- te tram- ble, et|veult es- tre mon-|té.|

